X: 13016
T: Final Demand, The
R: jig
M: 6/8
K: Bminor
|:BFF BcB|AFE EFA|BFF Bcd|~e3 cBA|
BFF BcB|AFE ~E3|DEF AFE|1 FBA B2F:|2 FBA B2c||
|:dBB ~f3|fBB B2c|dBB e2d|c2A ABc|
dcd ede|fef ~g3|fed cde|1 dBA B2c:|2 dBA B2F||

